dist/img/svg/property__item-icon--4.svg

<svg width="48" height="48" viewBox="0 0 48 48" fill="none" xmlns="http://www.w3.org/2000/svg">
<circle cx="24" cy="24" r="24" fill="#1F2120"/>
<path d="M21 15L20 17H18V16H16V17H15.918C15.0997 17 14.3387 17.508 14.0469 18.291C13.6476 19.3616 13 21.5458 13 24.5C13 27.4542 13.6476 29.6384 14.0469 30.709C14.3387 31.492 15.0997 32 15.918 32H17V33H19V32H29V33H31V32H32.082C32.9002 32 33.66 31.492 33.9531 30.7109V30.709C34.3524 29.6385 35 27.4542 35 24.5C35 21.5458 34.3524 19.3616 33.9531 18.291C33.6613 17.508 32.9003 17 32.082 17H32V16H30V17H28L27 15H21ZM15.918 19H20H28H32.082C32.4171 19.9002 33 21.8443 33 24.5C33 27.1557 32.4171 29.0998 32.082 30H15.918C15.5829 29.0998 15 27.1557 15 24.5C15 21.8443 15.5829 19.9002 15.918 19ZM24 21C24 21 21 23 21 25.5C21 26.966 21.9994 28 23.4434 28C23.1814 27.823 23 27.464 23 27C23 25.5 24 24 24 24C24 24 25 25.5 25 27C25 27.464 24.8186 27.823 24.5566 28C26.0006 28 27 26.966 27 25.5C27 23 24 21 24 21Z" fill="white"/>
</svg>

<svg width="48" height="48" viewBox="0 0 48 48" fill="none" xmlns="http://www.w3.org/2000/svg"><circle cx="24" cy="24" r="24" fill="#1F2120"/><path d="M21 15l-1 2h-2v-1h-2v1h-.082c-.818 0-1.58.508-1.871 1.291-.4 1.07-1.047 3.255-1.047 6.209 0 2.954.648 5.138 1.047 6.209A2.003 2.003 0 0015.918 32H17v1h2v-1h10v1h2v-1h1.082c.818 0 1.578-.508 1.871-1.29v-.001c.4-1.07 1.047-3.255 1.047-6.209 0-2.954-.648-5.138-1.047-6.209A2.003 2.003 0 0032.082 17H32v-1h-2v1h-2l-1-2h-6zm-5.082 4h16.164c.335.9.918 2.844.918 5.5s-.583 4.6-.918 5.5H15.918c-.335-.9-.918-2.844-.918-5.5s.583-4.6.918-5.5zM24 21s-3 2-3 4.5c0 1.466 1 2.5 2.443 2.5-.262-.177-.443-.536-.443-1 0-1.5 1-3 1-3s1 1.5 1 3c0 .464-.181.823-.443 1C26 28 27 26.966 27 25.5c0-2.5-3-4.5-3-4.5z" fill="#fff"/></svg>
